src/img/calc/butsred.svg

<svg width="48" height="51" viewBox="0 0 48 51" fill="none" xmlns="http://www.w3.org/2000/svg">
<g clip-path="url(#clip0)">
<path d="M16.5536 0C16.5536 0 -5.5416 12.0533 1.31555 29.2623C1.31555 29.2623 0.138059 40.4098 1.31555 51C1.31555 51 1.8004 34 4.22464 29.332C4.22464 29.332 -4.01779 15.7459 16.5536 0Z" fill="#D77C69"/>
<path d="M12.329 14.2129C12.329 14.2129 7.27273 26.3358 19.4632 32.5367C19.4632 32.5367 21.4026 43.1965 23.4113 50.9998C23.4113 50.9998 22.026 37.135 22.8571 32.1883C22.8571 32.1883 9.69697 28.008 12.329 14.2129Z" fill="#D77C69"/>
<path d="M14.1991 27.2417C14.1991 27.2417 12.5368 29.4712 7.96537 29.4015C7.96537 29.4015 11.7056 30.7253 15.4459 28.7048L14.1991 27.2417Z" fill="#D77C69"/>
<path d="M20.4329 44.3115C20.4329 44.3115 20.1558 47.377 18.7013 51.0697C18.7013 51.0697 19.8095 44.7295 19.5325 40.4795L20.4329 44.3115Z" fill="#D77C69"/>
<path d="M45.7835 2.29932C45.7835 2.29932 46.1299 9.26653 42.8052 14.701C42.8052 14.701 46.961 37.1354 48 51.0001C48 51.0001 43.1515 21.1805 39.4113 14.3526C39.4113 14.3526 44.329 11.9837 45.7835 2.29932Z" fill="#D77C69"/>
</g>
<defs>
<clipPath id="clip0">
<rect width="48" height="51" fill="white"/>
</clipPath>
</defs>
</svg>

<svg width="48" height="51" fill="none" xmlns="http://www.w3.org/2000/svg"><g clip-path="url(#clip0)" fill="#D77C69"><path d="M16.554 0S-5.542 12.053 1.316 29.262c0 0-1.178 11.148 0 21.738 0 0 .484-17 2.909-21.668 0 0-8.243-13.586 12.329-29.332z"/><path d="M12.329 14.213s-5.056 12.123 7.134 18.324c0 0 1.94 10.66 3.948 18.463 0 0-1.385-13.865-.554-18.812 0 0-13.16-4.18-10.528-17.975z"/><path d="M14.2 27.242s-1.663 2.23-6.235 2.16c0 0 3.74 1.323 7.48-.697L14.2 27.242zM20.433 44.312s-.277 3.065-1.732 6.758c0 0 1.108-6.34.831-10.59l.9 3.832zM45.783 2.3s.347 6.967-2.978 12.401c0 0 4.156 22.434 5.195 36.3 0 0-4.849-29.82-8.589-36.648 0 0 4.918-2.37 6.372-12.054z"/></g><defs><clipPath id="clip0"><path fill="#fff" d="M0 0h48v51H0z"/></clipPath></defs></svg>
